X: 389
T: A Thousand Farewells
R: slide
M: 12/8
K: Dmajor
|:dAF E3|DB,G, A,B,D|EFF BAF|BAF E2 c|
dAF E3|DB,G, A,B,D|EFF BAF|EFE D2 c:|
|:d2 e fed|add fdB|AFE DFA|BAF EFA|
d2 e fed|add fdA|(3BcdB AFA|Bdc d2 A:|

